web/public/images/brand/mark.svg

<svg fill="none" height="1000" viewBox="0 0 917 1000" width="917" xmlns="http://www.w3.org/2000/svg" xmlns:xlink="http://www.w3.org/1999/xlink"><clipPath id="a"><path d="m0 0h917v1000h-917z"/></clipPath><g clip-path="url(#a)"><path clip-rule="evenodd" d="m249.557 144.582 194.171 132.54c4.383 2.918 9.502 4.516 14.755 4.606 5.261-.038 10.394-1.641 14.755-4.606l194.319-132.986c7.55-5.406 11.714-14.418 10.957-23.717-.757-9.298-6.322-17.507-14.646-21.6024l-194.171-96.13614c-7.366-3.573947-15.947-3.573947-23.313 0l-193.581 96.13614c-8.474 4.1174-14.113 12.4854-14.783 21.9354-.67 9.451 3.73 18.541 11.537 23.83zm274.879 174.144c.016 8.789 4.318 17.01 11.509 21.991l155.662 106.389c9.965 6.87 23.298 6.012 32.313-2.081l130.579-116.789c5.819-5.199 9.051-12.729 8.823-20.56s-3.892-15.158-10.004-20.005l-124.677-99.702c-9.062-7.199-21.704-7.68-31.28-1.189l-161.416 110.401c-7.064 4.89-11.35 12.914-11.509 21.545zm-387.163 144.724c6.292 5.652 9.526 13.988 8.706 22.437-.817 8.499-5.726 16.052-13.132 20.208l-92.9545 55.72c-9.4227 5.633-21.32 4.82-29.90183-2.041-8.5818-6.861-12.06543-18.346-8.75546-28.865l34.37839-108.172c2.6969-8.57 9.5328-15.175 18.1483-17.533 8.609-2.505 17.8924-.309 24.4928 5.795zm504.168 11.293-168.056-115.007c-8.931-6.01-20.578-6.01-29.509 0l-168.056 115.007c-6.684 4.626-10.919 12.061-11.509 20.208-.435 8.203 2.816 16.169 8.853 21.693l167.909 150.222c4.842 4.319 11.089 6.698 17.558 6.687 6.465-.002 12.708-2.38 17.558-6.687l167.908-150.222c6.056-5.501 9.265-13.5 8.705-21.693-.469-8.146-4.666-15.612-11.361-20.208zm-448.247-29.718-130.4316-116.79c-5.8687-5.331-9.1073-12.995-8.8528-20.95.1419-7.841 3.7705-15.204 9.8856-20.06l124.6768-100.296c9.126-7.179 21.793-7.658 31.428-1.189l161.269 110.401c7.484 4.908 11.998 13.293 11.998 22.288 0 8.994-4.514 17.38-11.998 22.288l-155.515 106.388c-10.025 6.841-23.376 5.985-32.46-2.08zm669.715 167.756-132.792-79.495c-9.862-5.943-22.415-4.739-30.985 2.972l-162.301 144.873c-6.846 6.114-10.062 15.362-8.499 24.441 1.563 9.08 7.681 16.698 16.171 20.135l225.157 91.233c3.088 1.283 6.397 1.939 9.738 1.932 10.449.033 19.936-6.142 24.197-15.751l69.79-156.314c5.68-12.37 1.157-27.062-10.476-34.026zm18.443-190.043 34.379 108.171h-.295c2.542 8.091 1.097 16.919-3.889 23.761-4.986 6.841-12.915 10.876-21.342 10.86-4.728.016-9.37-1.269-13.427-3.715l-93.102-55.72c-7.254-4.243-11.992-11.789-12.689-20.208-.87-8.456 2.373-16.814 8.705-22.436l59.019-52.6c6.668-5.976 15.881-8.156 24.493-5.795 8.609 2.459 15.423 9.098 18.148 17.682zm-492.511 282.761c1.587-9.042-1.597-18.266-8.41-24.368l-162.302-144.873c-8.57-7.711-21.123-8.915-30.985-2.972l-132.7921 79.495c-11.4977 6.995-16.0467 21.502-10.6233 33.878l69.9374 156.314c5.794 13.034 20.774 19.134 33.936 13.818l225.009-91.232c8.492-3.407 14.632-10.995 16.23-20.06zm79.675 44.577 180.598 73.105c8.83 3.779 14.93 12.084 15.935 21.694 1.143 9.729-3.178 19.291-11.214 24.814l-180.745 125.556c-4.331 3.043-9.473 4.7-14.754 4.755-5.277-.082-10.411-1.737-14.755-4.755l-180.597-125.556c-8.066-5.508-12.439-15.061-11.362-24.814 1.206-9.71 7.526-18.006 16.526-21.694l180.597-73.105c6.351-2.532 13.421-2.532 19.771 0z" fill="#bf4722" fill-rule="evenodd"/></g></svg>

<svg width="917" height="1000" viewBox="0 0 917 1000" fill="none" xmlns="http://www.w3.org/2000/svg">
<g clip-path="url(#clip0_2_16)">
<path fill-rule="evenodd" clip-rule="evenodd" d="M249.557 144.582L443.728 277.122C448.111 280.04 453.23 281.638 458.483 281.728C463.744 281.69 468.877 280.087 473.238 277.122L667.557 144.136C675.107 138.73 679.271 129.718 678.514 120.419C677.757 111.121 672.192 102.912 663.868 98.8166L469.697 2.68046C462.331 -0.893487 453.75 -0.893487 446.384 2.68046L252.803 98.8166C244.329 102.934 238.69 111.302 238.02 120.752C237.35 130.203 241.75 139.293 249.557 144.582ZM524.436 318.726C524.452 327.515 528.754 335.736 535.945 340.717L691.607 447.106C701.572 453.976 714.905 453.118 723.92 445.025L854.499 328.236C860.318 323.037 863.55 315.507 863.322 307.676C863.094 299.845 859.43 292.518 853.318 287.671L728.641 187.969C719.579 180.77 706.937 180.289 697.361 186.78L535.945 297.181C528.881 302.071 524.595 310.095 524.436 318.726ZM137.273 463.45C143.565 469.102 146.799 477.438 145.979 485.887C145.162 494.386 140.253 501.939 132.847 506.095L39.8925 561.815C30.4698 567.448 18.5725 566.635 9.99067 559.774C1.40887 552.913 -2.07476 541.428 1.23521 530.909L35.6136 422.737C38.3105 414.167 45.1464 407.562 53.7619 405.204C62.3709 402.699 71.6543 404.895 78.2547 410.999L137.273 463.45ZM641.441 474.743L473.385 359.736C464.454 353.726 452.807 353.726 443.876 359.736L275.82 474.743C269.136 479.369 264.901 486.804 264.311 494.951C263.876 503.154 267.127 511.12 273.164 516.644L441.073 666.866C445.915 671.185 452.162 673.564 458.631 673.553C465.096 673.551 471.339 671.173 476.189 666.866L644.097 516.644C650.153 511.143 653.362 503.144 652.802 494.951C652.333 486.805 648.136 479.339 641.441 474.743ZM193.194 445.025L62.7624 328.235C56.8937 322.904 53.6551 315.24 53.9096 307.285C54.0515 299.444 57.6801 292.081 63.7952 287.225L188.472 186.929C197.598 179.75 210.265 179.271 219.9 185.74L381.169 296.141C388.653 301.049 393.167 309.434 393.167 318.429C393.167 327.423 388.653 335.809 381.169 340.717L225.654 447.105C215.629 453.946 202.278 453.09 193.194 445.025ZM862.909 612.781L730.117 533.286C720.255 527.343 707.702 528.547 699.132 536.258L536.831 681.131C529.985 687.245 526.769 696.493 528.332 705.572C529.895 714.652 536.013 722.27 544.503 725.707L769.66 816.94C772.748 818.223 776.057 818.879 779.398 818.872C789.847 818.905 799.334 812.73 803.595 803.121L873.385 646.807C879.065 634.437 874.542 619.745 862.909 612.781ZM881.352 422.738L915.731 530.909H915.436C917.978 539 916.533 547.828 911.547 554.67C906.561 561.511 898.632 565.546 890.205 565.53C885.477 565.546 880.835 564.261 876.778 561.815L783.676 506.095C776.422 501.852 771.684 494.306 770.987 485.887C770.117 477.431 773.36 469.073 779.692 463.451L838.711 410.851C845.379 404.875 854.592 402.695 863.204 405.056C871.813 407.515 878.627 414.154 881.352 422.738ZM388.841 705.499C390.428 696.457 387.244 687.233 380.431 681.131L218.129 536.258C209.559 528.547 197.006 527.343 187.144 533.286L54.3519 612.781C42.8542 619.776 38.3052 634.283 43.7286 646.659L113.666 802.973C119.46 816.007 134.44 822.107 147.602 816.791L372.611 725.559C381.103 722.152 387.243 714.564 388.841 705.499ZM468.516 750.076L649.114 823.181C657.944 826.96 664.044 835.265 665.049 844.875C666.192 854.604 661.871 864.166 653.835 869.689L473.09 995.245C468.759 998.288 463.617 999.945 458.336 1000C453.059 999.918 447.925 998.263 443.581 995.245L262.984 869.689C254.918 864.181 250.545 854.628 251.622 844.875C252.828 835.165 259.148 826.869 268.148 823.181L448.745 750.076C455.096 747.544 462.166 747.544 468.516 750.076Z" fill="#BF4722"/>
</g>
<defs>
<clipPath id="clip0_2_16">
<rect width="917" height="1000" fill="white"/>
</clipPath>
</defs>
</svg>
